icons/type-icons/icons/application-vnd.flatpak.ref.svg

<?xml version="1.0" encoding="UTF-8"?>
<svg viewBox="0 0 22 22" xmlns="http://www.w3.org/2000/svg">
 <path d="m11 1.8-8 4.1v10.1l8 4 8-4v-10.1l-8-4.1zm0 1.2v5.3l-0.5 0.3-6.5-2.1 7-3.5zm7 4v8.4l-7 3.4v-9.3l7-2.5z" fill="#209ae7"/>
</svg>

<svg xmlns="http://www.w3.org/2000/svg" viewBox="0 0 22 22">
  <path
     style="fill:#209ae7;fill-opacity:1"
     d="M 11 1.8 L 3 5.9 L 3 16 L 11 20 L 19 16 L 19 5.9 L 11 1.8 z M 11 3 L 11 8.3 L 10.5 8.6 L 4 6.5 L 11 3 z M 18 7 L 18 15.4 L 11 18.8 L 11 9.5 L 18 7 z "
     />
</svg>
